lib/brands/logos/eventbrite.svg

<svg xmlns="http://www.w3.org/2000/svg" fill="none" aria-hidden="true" viewBox="0 0 260 52"><g id="Eventbrite"><path id="Vector" fill="#F05537" d="M20.5767 19.0807C28.5144 17.2675 36.4522 22.1429 38.2654 29.9195C38.4445 30.7433 38.5599 31.5989 38.6116 32.4581L38.628 32.7804L34.1152 33.7877L31.7782 34.3115L17.3129 37.5752C19.1261 40.154 22.4302 41.4837 25.6939 40.7584C27.6085 40.3286 29.2957 39.2168 30.4249 37.6435L30.5291 37.4947L37.379 39.1064C35.5255 43.0954 31.8991 46.2383 27.2251 47.2859C19.2873 49.0991 11.3898 44.2639 9.53633 36.447C7.68284 28.6302 12.6389 20.8938 20.5767 19.0807ZM232.801 19.1209C240.739 17.3078 248.677 22.1832 250.49 29.9598C250.669 30.7836 250.784 31.6392 250.836 32.4984L250.853 32.8206L246.34 33.828L244.003 34.3518L229.537 37.6155C231.351 40.1943 234.655 41.524 237.918 40.7987C239.833 40.3689 241.52 39.2571 242.649 37.6838L242.754 37.535L249.603 39.1064C247.75 43.0954 244.124 46.2383 239.45 47.2859C231.512 49.0991 223.574 44.2236 221.761 36.447C219.907 28.6704 224.863 20.9341 232.801 19.1209ZM76.0202 19.1209C83.9579 17.3078 91.8554 22.1832 93.7089 29.9598C93.888 30.7836 94.0034 31.6392 94.0551 32.4984L94.0715 32.8206L89.5587 33.828L87.2217 34.3518L72.7564 37.6155C74.6502 40.2749 77.9542 41.524 81.1374 40.7987C83.1118 40.3555 84.8444 39.187 85.9726 37.535L90.8153 38.6281C91.9435 38.8862 92.8224 39.092 92.8224 39.1064C90.969 43.0954 87.3426 46.2383 82.6685 47.2859C74.7308 49.0991 66.793 44.2236 64.9798 36.447C63.1263 28.6704 68.0824 20.9341 76.0202 19.1209ZM151.207 4.33333V21.2565C153.464 19.4433 156.123 18.6777 159.065 18.6777C167.365 18.6777 174.013 25.0843 174.013 33.1027C174.013 41.0808 167.365 47.6083 159.065 47.6083C156.163 47.6083 153.464 46.8427 151.207 45.0295V46.8427H143.914V5.98535L151.207 4.33333ZM183.563 19.1612V21.6191C185.772 20.041 187.904 19.4673 191.51 19.2549L191.742 19.2418V26.3334C184.682 26.5728 183.584 28.9447 183.563 33.1363L183.563 46.8427H176.27V19.1612H183.563ZM135.936 7.79855V19.1612H141.618V26.0514H135.936V46.8427H128.361V26.0514H123.889V19.1612H128.361V9.49086L135.936 7.79855ZM110.793 18.6374C116.958 18.6374 122.317 22.1832 122.317 30.8463V46.8024H114.984V32.0551C114.984 26.8089 112.203 25.5786 109.365 25.5292L109.181 25.5276L108.998 25.529C106.16 25.5753 103.379 26.7275 103.379 31.9342V46.8427H96.0862V19.1612H103.379V21.2162L103.92 20.8273C105.436 19.7568 107.347 18.6374 110.793 18.6374ZM44.3497 19.1612L51.5219 37.9379L58.7747 19.1612H66.7124L55.3497 46.8427H47.7746L36.4119 19.1612H44.3497ZM201.574 19.1612V46.8427H194.281V19.1612H201.574ZM216.281 9.49086V19.1612H221.962V26.1723H216.281V46.8024H208.706V26.2126H204.233V19.1612H208.706V9.49086H216.281ZM159.024 25.3261C154.713 25.3261 151.207 28.751 151.046 32.7401V33.425C151.248 37.4544 154.753 40.839 159.024 40.839C163.376 40.839 166.962 37.2932 166.962 33.0624C166.962 28.9122 163.376 25.3261 159.024 25.3261ZM228.248 31.9342L242.673 28.6704C240.779 26.0514 237.475 24.8023 234.332 25.5276C231.121 26.2412 228.846 28.7879 228.275 31.7864L228.248 31.9342L242.673 28.6704L228.248 31.9342ZM71.467 31.9342L85.892 28.6704C84.0788 26.132 80.8151 24.8023 77.5513 25.5276C74.3394 26.2413 72.025 28.7892 71.4914 31.7887L71.467 31.9342L85.892 28.6704L71.467 31.9342ZM16.0235 31.9342L30.4485 28.6704C28.6353 26.132 25.3716 24.8023 22.1078 25.5276C18.8959 26.2413 16.5815 28.7502 16.048 31.7869L16.0235 31.9342L30.4485 28.6704L16.0235 31.9342ZM197.947 4.97802C200.567 4.97802 202.501 6.9121 202.501 9.45057C202.501 12.0293 200.526 14.0037 197.947 14.0037C195.328 14.0037 193.314 12.0293 193.314 9.45057C193.314 6.8718 195.328 4.97802 197.947 4.97802Z"/></g></svg>

<svg xmlns="http://www.w3.org/2000/svg" fill="none" aria-hidden="true" viewBox="0 0 260 52"><path fill="#F05537" d="M20.577 19.08c7.937-1.813 15.875 3.063 17.688 10.84.18.823.295 1.679.347 2.538l.016.322-4.513 1.008-2.337.524-14.465 3.263c1.813 2.579 5.117 3.909 8.38 3.183a7.971 7.971 0 0 0 4.732-3.114l.104-.15 6.85 1.612a14.714 14.714 0 0 1-10.154 8.18c-7.938 1.813-15.835-3.022-17.689-10.839-1.853-7.817 3.103-15.553 11.04-17.366Zm212.224.04c7.938-1.812 15.876 3.063 17.689 10.84.179.824.294 1.68.346 2.538l.017.323-4.513 1.007-2.337.524-14.466 3.264c1.814 2.578 5.118 3.908 8.381 3.183a7.97 7.97 0 0 0 4.731-3.115l.105-.149 6.849 1.571a14.711 14.711 0 0 1-10.153 8.18c-7.938 1.813-15.876-3.062-17.689-10.839-1.854-7.777 3.102-15.513 11.04-17.326Zm-156.78 0c7.937-1.812 15.834 3.063 17.688 10.84.179.824.294 1.68.346 2.538l.016.323-4.512 1.007-2.337.524-14.466 3.264a8.076 8.076 0 0 0 8.381 3.183 7.965 7.965 0 0 0 4.836-3.264l4.842 1.093c1.129.258 2.007.464 2.007.478a14.713 14.713 0 0 1-10.154 8.18c-7.937 1.813-15.875-3.062-17.688-10.839-1.854-7.777 3.102-15.513 11.04-17.326Zm75.186-14.787v16.923c2.257-1.813 4.916-2.578 7.858-2.578 8.3 0 14.948 6.406 14.948 14.425 0 7.978-6.648 14.505-14.948 14.505-2.902 0-5.601-.765-7.858-2.578v1.813h-7.293V5.985l7.293-1.652Zm32.356 14.828v2.458c2.209-1.578 4.341-2.152 7.947-2.364l.232-.013v7.091c-7.06.24-8.158 2.612-8.179 6.803v13.707h-7.293V19.16h7.293ZM135.936 7.8v11.36h5.682v6.89h-5.682v20.792h-7.575V26.05h-4.472v-6.89h4.472V9.49l7.575-1.692Zm-25.143 10.838c6.165 0 11.524 3.546 11.524 12.21v15.955h-7.333V32.055c0-5.246-2.781-6.476-5.619-6.526l-.184-.001-.183.001c-2.838.046-5.619 1.198-5.619 6.405v14.909h-7.293V19.16h7.293v2.055l.541-.389c1.516-1.07 3.427-2.19 6.873-2.19Zm-66.443.524 7.172 18.777 7.253-18.777h7.937L55.35 46.843h-7.575L36.412 19.16h7.938Zm157.224 0v27.682h-7.293V19.16h7.293Zm14.707-9.67v9.67h5.681v7.011h-5.681v20.63h-7.575v-20.59h-4.473v-7.05h4.473V9.49h7.575Zm-57.257 15.835c-4.311 0-7.817 3.425-7.978 7.414v.685c.202 4.03 3.707 7.414 7.978 7.414 4.352 0 7.938-3.546 7.938-7.777 0-4.15-3.586-7.736-7.938-7.736Zm69.224 6.608 14.425-3.264c-1.894-2.619-5.198-3.868-8.341-3.142-3.211.713-5.486 3.26-6.057 6.258l-.027.148 14.425-3.264-14.425 3.264Zm-156.781 0 14.425-3.264c-1.813-2.538-5.077-3.868-8.34-3.142-3.213.713-5.527 3.261-6.06 6.26l-.025.146 14.425-3.264-14.425 3.264Zm-55.444 0 14.425-3.264c-1.813-2.538-5.076-3.868-8.34-3.142-3.212.713-5.527 3.222-6.06 6.259l-.024.147 14.424-3.264-14.425 3.264ZM197.947 4.978c2.62 0 4.554 1.934 4.554 4.473 0 2.578-1.975 4.553-4.554 4.553-2.619 0-4.633-1.975-4.633-4.553 0-2.58 2.014-4.473 4.633-4.473Z"/></svg>
